!!!!SEGMENT: pl-kk--kk-i-76_anonim--et-in-terra-pax.krn
!!!cenid: 17xx:2301
!!!COM: Anonim
!!!COM-rismid: pe30004985
!!!CDT:
!!!CNT:
!!!OTL: Et in terra pax
!!!PDT:
!!!AGN: Sacred; Mass section
!!!SMS-siglum: PL-Kk
!!!SMS-shelfmark: Kk.I.76
!!!SMS-shelfwork: W
!!!SMS-variant:
!!!SMS-altvar:
!!!NIFC-rismid: 1001155583
!!!URL-scan: http://repozytorium.nifc.pl/skany/pl-kk-nut--i-76
!!!ONB-nifc:
**kern	**text	**kern	**text	**kern	**text	**kern	**text	**kern	**text	**kern	**text
*part6	*part6	*part5	*part5	*part4	*part4	*part3	*part3	*part2	*part2	*part1	*part1
*staff6	*staff6	*staff5	*staff5	*staff4	*staff4	*staff3	*staff3	*staff2	*staff2	*staff1	*staff1
*I"Baſso Ripieno	*	*I"Baſso.	*	*I"Tenore Vagante	*	*I"Tenore in Chorali	*	*I"Alto	*	*I"Canto.	*
*I'B rip	*	*I'B	*	*I'T 2	*	*I'T 1	*	*I'A	*	*I'S	*
*clefF4	*	*clefF4	*	*clefC4	*	*clefC4	*	*clefC3	*	*clefC1	*
*k[b-]	*	*k[b-]	*	*k[b-]	*	*k[b-]	*	*k[b-]	*	*k[b-]	*
*M2/1	*	*M2/1	*	*M2/1	*	*M2/1	*	*M2/1	*	*M2/1	*
*met(c|)	*	*met(c|)	*	*met(c|)	*	*met(c|)	*	*met(c|)	*	*met(c|)	*
*2\right	*	*2\right	*	*2\right	*	*2\right	*	*2\right	*	*2\right	*
=1-	=1-	=1-	=1-	=1-	=1-	=1-	=1-	=1-	=1-	=1-	=1-
!!LO:TX:t=P:problem:w paru taktach błędne wyświetlanie z uwagi na różne rozmieszczenie kresek pseudotaktowych w poszczególnych księgach głosowych
!	!	!	!	!	!	!	!	!	!	!LO:TX:t=Hymnus Angelicus	!
!	!	!LO:TX:t=P:problem:znaki przykluczowe:BB-, B-	!	!	!	!	!	!	!	!LO:TX:t=P:problem:kreska pseudotaktowa	!
2F\	Et	2F\	Et	2A/	Et	2F/	Et	2c/	Et	00r	.
!	!	!	!	!LO:TX:t=P:problem:kreska pseudotaktowa	!	!LO:TX:t=P:problem:kreska pseudotaktowa	!	!LO:TX:t=P:problem:kreska pseudotaktowa	!	!	!
(4A\	in	(4A\	in	2A/	in	2F/	in	2c/	in	.	.
!LO:TX:t=P:problem:kreska pseudotaktowa	!	!LO:TX:t=P:problem:kreska pseudotaktowa	!	!	!	!	!	!	!	!	!
4G\)	.	4G\)	.	.	.	.	.	.	.	.	.
2F\	ter-	2F\	ter-	2A/	ter-	2F/	ter-	2c/	ter-	.	.
!LO:TX:t=P:problem:kreska pseudotaktowa	!	!LO:TX:t=P:problem:kreska pseudotaktowa	!	!LO:TX:t=P:problem:kreska pseudotaktowa	!	!LO:TX:t=P:problem:kreska pseudotaktowa	!	!LO:TX:t=P:problem:kreska pseudotaktowa	!	!	!
2F\	-ra	2F\	-ra	2A/	-ra	2F,/	-ra	2c/	-ra	.	.
=2	=2-	=2	=2-	=2	=2-	=2	=2-	=2	=2-	=2-	=2-
!	!	!	!	!	!	!	!	!	!	!	!
2F\	pax	2F\	pax	2A/	pax	2A,/	pax	2c/	pax	.	.
!LO:TX:t=P:problem:kreska pseudotaktowa	!	!LO:TX:t=P:problem:kreska pseudotaktowa	!	!	!	!	!	!LO:TX:t=P:problem:kreska pseudotaktowa	!	!	!
2FF/	ho-	2FF/	ho-	(4G/	ho-	2A/	ho-	2d/	ho-	.	.
!	!	!	!	!LO:TX:t=P:problem:kreska pseudotaktowa	!	!	!	!	!	!	!
.	.	.	.	4F/)	.	.	.	.	.	.	.
2C/	-mi-	2C/	-mi-	4E/	-mi-	2G/	-mi-	2e\	-mi-	.	.
.	.	.	.	4F/	-ni-	.	.	.	.	.	.
4C/	-ni-	4C/	-ni-	4G/	-bus	4G/	-ni-	4e\	-ni-	.	.
!LO:TX:t=P:problem:kreska pseudotaktowa	!	!LO:TX:t=P:problem:kreska pseudotaktowa	!	!LO:TX:t=P:problem:kreska pseudotaktowa	!	!LO:TX:t=P:problem:kreska pseudotaktowa	!	!LO:TX:t=P:problem:kreska pseudotaktowa	!	!	!
4C,/	-bus	4C,/	-b(us)	4E/	.	4G/	-b(us)	4e\	-b(us)	.	.
=3	=3-	=3	=3-	=3	=3-	=3	=3-	=3	=3-	=3	=3-
!	!	!	!	!	!	!	!	!	!	!LO:TX:t=P:problem:kreska pseudotaktowa	!
2FF/	bo-	2FF/	bo-	2.F/	bo-	2.A/	bo-	1.c	bo-	[1f	Lau-
!LO:TX:t=P:problem:kreska pseudotaktowa	!	!LO:TX:t=P:problem:kreska pseudotaktowa	!	!	!	!	!	!	!	!	!
2F\	-nae	2F\	-nae	.	.	.	.	.	.	.	.
.	.	.	.	4G/	-nae	4G/	-nae	.	.	.	.
(4F\	vo-	(4F\	vo-	1.A	Vo-	2F/	vo-	.	.	(2.f]	.
4E\)	.	4E\)	.	.	.	.	.	.	.	.	.
!	!	!	!	!	!	!LO:TX:t=P:problem:kreska pseudotaktowa	!	!	!	!	!
(4D\	-lun-	(4D\	-lun-	.	.	2F/	-lun-	(4d/	-nae	.	.
!LO:TX:t=P:problem:kreska pseudotaktowa	!	!	!	!	!	!	!	!LO:TX:t=P:problem:kreska pseudotaktowa	!	!LO:TX:t=P:problem:kreska pseudotaktowa	!
4C\)	.	4C\)	.	.	.	.	.	4e/)	.	4g/)	.
=4	=4-	=4-	=4-	=4-	=4-	=4	=4-	=4	=4-	=4	=4-
!	!	!	!	!	!	!	!	!	!	!LO:TX:t=P:problem:kreska pseudotaktowa	!
1D	-ta-	1D	-ta-	.	.	2.F/	-ta-	2.d/	vo-	(1a	-da-
!	!	!	!	!LO:TX:t=P:problem:kreska pseudotaktowa	!	!	!	!	!	!	!
.	.	.	.	2A\	-lun-	.	.	.	.	.	.
!	!	!	!	!	!	!	!	!LO:TX:t=P:problem:kreska pseudotaktowa	!	!	!
.	.	.	.	.	.	4E/	.	4c/	-lun-	.	.
2GG,/	-tis	2GG,/	-tis	2G/	-ta-	2D,/	-tis	2B-X/	-ta-	2g\)	.
!LO:TX:t=P:problem:kreska pseudotaktowa	!	!LO:TX:t=P:problem:kreska pseudotaktowa	!	!LO:TX:t=P:problem:kreska pseudotaktowa	!	!LO:TX:t=P:problem:kreska pseudotaktowa	!	!	!	!LO:TX:t=P:problem:kreska pseudotaktowa	!
2D\	Lau-	2D\	Lau-	2F,/	-tis	2D/	Lau-	4A/	.	(<2.a\	.
!	!	!	!	!	!	!	!	!LO:TX:t=P:problem:kreska pseudotaktowa	!	!	!
.	.	.	.	.	.	.	.	4G/	.	.	.
=5	=5-	=5	=5-	=5	=5-	=5	=5-	=5	=5-	=5	=5-
4D\	-da-	4D\	-da-	1A	Lau-	2F/	-da-	4F/	.	.	.
4D\	-m(us)	4D\	-m(us)	.	.	.	.	4G/	.	4g/)	.
!LO:TX:t=P:problem:kreska pseudotaktowa	!	!LO:TX:t=P:problem:kreska pseudotaktowa	!	!	!	!LO:TX:t=P:problem:kreska pseudotaktowa	!	!	!	!	!
2D\	Te	2D\	Te	.	.	2F/	-m(us)	4A/	.	1f	.
.	.	.	.	.	.	.	.	4B-/	.	.	.
!	!	!	!	!	!	!	!	!LO:TX:t=P:problem:kreska pseudotaktowa	!	!	!
2r	.	2r	.	2.G/	-da-	2C,/	Te	1c	-tis.	.	.
!	!	!	!	!	!	!	!	!	!	!LO:TX:t=P:problem:kreska pseudotaktowa	!
4C/	be-	4C/	be-	.	.	4C/	be-	.	.	2e,/	-mus
!LO:TX:t=P:problem:kreska pseudotaktowa	!	!	!	!	!	!	!	!	!	!	!
4C/	-ne-	4C/	-ne-	4G/	-m(us)	4C/	-ne-	.	.	.	.
!LO:LB:g=original	!	!	!	!	!	!	!	!	!	!	!
=6	=6-	=6-	=6-	=6-	=6-	=6-	=6-	=6	=6-	=6	=6-
!	!	!	!	!LO:TX:t=P:problem:kreska pseudotaktowa	!	!	!	!	!	!LO:TX:t=P:problem:kreska pseudotaktowa	!
2D\	-di-	2D\	-di-	1F,	Te!	2F/	-di-	2r	.	1f,	Te
4F\	-ci-	4F\	-ci-	.	.	4F/	-ci-	1d	be-	.	.
!LO:TX:t=P:problem:kreska pseudotaktowa	!	!LO:TX:t=P:problem:kreska pseudotaktowa	!	!	!	!	!	!	!	!	!
4E\	-m(us)	4E\	-m(us)	.	.	4F/	-m(us)	.	.	.	.
!	!	!LO:LB:g=original	!	!	!	!LO:TX:t=P:problem:kreska pseudotaktowa	!	!	!	!LO:TX:t=P:problem:kreska pseudotaktowa	!
4D/	Te.	(4D/	Te	2r	.	1F	Te	.	.	1r	.
4C/	.	4C/)	.	.	.	.	.	.	.	.	.
!LO:TX:t=P:problem:kreska pseudotaktowa	!	!LO:TX:t=P:problem:kreska pseudotaktowa	!	!	!	!	!	!LO:TX:t=P:problem:kreska pseudotaktowa	!	!	!
2D,/	.	2D,/	.	1F/	be-	.	.	2B-/	-ne-	.	.
!	!	!	!	!	!	!LO:LB:g=original	!	!LO:LB:g=original	!	!	!
=7	=7-	=7	=7-	=7-	=7-	=7	=7-	=7	=7-	=7	=7-
2.C/	a-	2.C/	a-	.	.	2.G/	a-	2c/	-di-	1g	be-
!	!	!	!	!LO:TX:t=P:problem:kreska pseudotaktowa	!	!	!	!	!	!	!
!	!	!	!	!LO:SIC:v:t=custos:F	!	!	!	!	!	!	!
.	.	.	.	2E/	-ne-	.	.	4c/	-ci-	.	.
!	!	!LO:TX:t=P:problem:kreska pseudotaktowa	!	!	!	!	!	!LO:TX:t=P:problem:kreska pseudotaktowa	!	!	!
4C/	-do-	4C/	-do-	.	.	4G/	-do-	4c/	-m(us)	.	.
*	*	*	*	*	*	*lig	*	*	*	*	*
!	!	!	!	!LO:LB:g=original	!	!	!	!LO:TX:t=P:problem:kreska pseudotaktowa	!	!	!
2FF/	-ra-	2FF/	-ra-	2F/	-di-	1A	-ra-	1c	Te	2f/	-ne-
1F\	.	1F\	.	4F/	-ci-	.	.	.	.	2.c/	-di-
.	.	.	.	4F/	-m(us)	.	.	.	.	.	.
=8-	=8-	=8-	=8-	=8-	=8-	=8-	=8-	=8	=8-	=8-	=8-
!	!	!	!	!LO:TX:t=P:problem:kreska pseudotaktowa	!	!	!	!	!	!	!
.	.	.	.	1C	Te	1G	.	2r	.	.	.
.	.	.	.	.	.	.	.	.	.	4d/	-ci-
!	!	!	!	!	!	!	!	!	!	!LO:TX:t=P:problem:kreska pseudotaktowa	!
!LO:TX:t=P:problem:kreska pseudotaktowa	!	!LO:TX:t=P:problem:kreska pseudotaktowa	!	!	!	!	!	!	!	!LO:SIC:v:t=custos:c	!
2E\	-m(us)	2E,\	-m(us)	.	.	.	.	1c	a-	2e/	-mus
!	!	!	!	!LO:TX:t=P:problem:kreska pseudotaktowa	!	!	!	!	!	!	!
2F\	Te!	(2F\	Te	1r	.	1F	.	.	.	(2c/	Te
2D\	.	2D\)	.	.	.	.	.	2Bn/	-do-	1f/)	.
!	!	!	!	!	!	!	!	!LO:TX:t=P:problem:kreska pseudotaktowa	!	!LO:LB:g=original	!
*	*	*	*	*	*	*Xlig	*	*	*	*	*
=9-	=9-	=9-	=9-	=9	=9-	=9-	=9-	=9	=9-	=9-	=9-
!LO:TX:t=P:problem:kreska pseudotaktowa	!	!LO:TX:t=P:problem:kreska pseudotaktowa	!	!	!	!	!	!	!	!	!
1C	.	1C	.	2r	.	2G/	.	2c/	-ra-	.	.
!	!	!	!	!	!	!LO:TX:t=P:problem:kreska pseudotaktowa	!	!	!	!LO:TX:t=P:problem:kreska pseudotaktowa	!
.	.	.	.	1c	a-	2G,/	-m(us)	2c/	-m(us)	2e/	.
!	!	!	!	!	!	!	!	!LO:TX:t=P:problem:kreska pseudotaktowa	!	!	!
2r	.	2r	.	.	.	2F,/	Te	1A,	Te	2f,/	.
!LO:TX:t=P:problem:kreska pseudotaktowa	!	!	!	!LO:TX:t=P:problem:kreska pseudotaktowa	!	!LO:TX:t=P:problem:kreska pseudotaktowa	!	!	!	!	!
2F\	glo-	2F\	glo-	2c\	-do-	2F/	glo-	.	.	2f/	a-
=10	=10-	=10-	=10-	=10	=10-	=10	=10-	=10	=10-	=10-	=10-
2F\	-ri-	2F\	-ri-	2A/	-ra-	1.F	-ri-	2r	.	1c	-do-
!LO:TX:t=P:problem:kreska pseudotaktowa	!	!LO:TX:t=P:problem:kreska pseudotaktowa	!	!	!	!	!	!	!	!	!
2F\	-fi-	2F\	-fi-	2A/	-m(us)	.	.	1f	glo-	.	.
!	!	!	!	!LO:TX:t=P:problem:kreska pseudotaktowa	!	!	!	!	!	!	!
2.D/	-ca-	(2.D/	-ca-	1F	Te	.	.	.	.	2.d/	-ra-
!	!	!	!	!	!	!LO:TX:t=P:problem:kreska pseudotaktowa	!	!	!	!	!
.	.	.	.	.	.	2F/	-fi-	4f\	-ri-	.	.
!	!	!	!	!	!	!	!	!LO:TX:t=P:problem:kreska pseudotaktowa	!	!	!
4C/	.	4C/)	.	.	.	.	.	4f\	-fi-	4e,/	-m(us)
=11-	=11-	=11-	=11-	=11	=11-	=11	=11-	=11	=11-	=11-	=11-
!	!	!	!	!	!	!	!	!	!	!LO:TX:t=P:problem:kreska pseudotaktowa	!
1.BB-X	.	1.BB-X	.	2B-X\	glo-	(2.F/	-ca-	2.d\	-ca-	[1f	Te
.	.	.	.	4A/	-ri-	.	.	.	.	.	.
!	!	!	!	!	!	!	!	!LO:TX:t=P:problem:kreska pseudotaktowa	!	!	!
.	.	.	.	4G/	-fi-	4E/)	.	4c/	.	.	.
!	!	!	!	!	!	!	!	!	!	!LO:TX:t=P:problem:kreska pseudotaktowa	!
.	.	.	.	(2.F/	-ca-	2.D/	.	2B-X/	-m(us)	1f],	.
2BB-/	-m(us)	2BB-/	-m(us)	.	.	.	.	2B-/	.	.	.
.	.	.	.	4G/)	.	4E/	-m(us)	.	.	.	.
=12-	=12-	=12-	=12-	=12-	=12-	=12-	=12-	=12-	=12-	=12	=12-
!LO:TX:t=P:problem:kreska pseudotaktowa	!	!LO:TX:t=P:problem:kreska pseudotaktowa	!	!	!	!LO:TX:t=P:problem:kreska pseudotaktowa	!	!LO:TX:t=P:problem:kreska pseudotaktowa	!	!	!
1FF,	Te.	1FF,	Te	2A/	.	1F,	Te.	1c	Te	2r	.
!	!	!	!	!LO:TX:t=P:problem:kreska pseudotaktowa	!	!	!	!	!	!	!
.	.	.	.	2A/	-m(us)	.	.	.	.	2.f/	Gra-
2r	.	2r	.	0F	Te	[>1F	Gra-	2r	.	.	.
.	.	.	.	.	.	.	.	.	.	4e/	-ti-
2.F\	Gra-	2.F\	Gra-	.	.	.	.	1A\	Gra-	4d/	-as
!	!	!	!	!	!	!	!	!	!	!LO:TX:t=P:problem:kreska pseudotaktowa	!
.	.	.	.	.	.	.	.	.	.	4c/	.
=13-	=13-	=13-	=13-	=13-	=13-	=13-	=13-	=13-	=13-	=13	=13-
!	!	!	!	!LO:TX:t=P:problem:kreska pseudotaktowa	!	!	!	!	!	!	!
.	.	.	.	.	.	2F]	.	.	.	2.d/	a-
(4E\	.	4E\	.	.	.	.	.	.	.	.	.
!	!	!	!	!	!	!	!	!LO:TX:t=P:problem:kreska pseudotaktowa	!	!	!
4D\	.	4D\	.	.	.	4F/	-ti-	2A/	-ti-	.	.
!LO:TX:t=P:problem:kreska pseudotaktowa	!	!LO:TX:t=P:problem:kreska pseudotaktowa	!	!	!	!LO:TX:t=P:problem:kreska pseudotaktowa	!	!	!	!LO:TX:t=P:problem:kreska pseudotaktowa	!
4C\)	.	4C\	.	.	.	4F/	-as	.	.	4e/	-gi-
4BB-/	-ti-	4BB-/	-ti-	0r	.	2F/	a-	2d,\	-as	(4f/	-mus
4BB-/	-as	4BB-/	-as	.	.	.	.	.	.	4g/)	.
!LO:TX:t=P:problem:kreska pseudotaktowa	!	!LO:TX:t=P:problem:kreska pseudotaktowa	!	!	!	!	!	!LO:TX:t=P:problem:kreska pseudotaktowa	!	!LO:TX:t=P:problem:kreska pseudotaktowa	!
!LO:TX:t=P:problem:kropka po kresce taktowej (w systemie poniżej)	!	!	!	!	!	!	!	!	!	!	!
2.FF/	.	2.FF/	.	.	.	4F/	-gi-	2c\	a-	(<2.a\	.
!	!	!	!	!	!	!LO:TX:t=P:problem:kreska pseudotaktowa	!	!	!	!	!
.	.	.	.	.	.	4G/	-m(us)	.	.	.	.
!LO:LB:g=original	!	!	!	!	!	!	!	!	!	!	!
=14	=14-	=14	=14-	=14-	=14-	=14	=14-	=14	=14-	=14	=14-
.	.	.	.	.	.	1A	Ti-	2d\	-gi-	.	.
4GG/	.	4GG/	.	.	.	.	.	.	.	4g,/)	.
!	!	!	!	!	!	!	!	!LO:TX:t=P:problem:kreska pseudotaktowa	!	!	!
(4AA/	.	(4AA/	.	.	.	.	.	2d\	-m(us)	1f	Ti-
!	!	!LO:TX:t=P:problem:kreska pseudotaktowa	!	!	!	!	!	!	!	!	!
!LO:TX:t=P:problem:kreska pseudotaktowa	!	!LO:SIC:v:t=custos:C	!	!	!	!	!	!	!	!	!
4BB-/)	.	4BB-/)	.	.	.	.	.	.	.	.	.
!	!	!	!	!	!	!LO:TX:t=P:problem:kreska pseudotaktowa	!	!	!	!	!
!	!	!	!	!	!	!LO:SIC:v:t=custos:F	!	!LO:LB:g=original	!	!	!
2C/	a-	2C/	a-	2r	.	1G	-bi	2.c/	Ti-	.	.
!	!	!	!	!	!	!	!	!	!	!LO:TX:t=P:problem:kreska pseudotaktowa	!
4C/	-gi-	4C/	-gi-	1C/	Do-	.	.	.	.	2e/	.
!LO:TX:t=P:problem:kreska pseudotaktowa	!	!	!	!	!	!	!	!	!	!	!
4C/	-m(us)	4C/	-m(us)	.	.	.	.	4B-/	.	.	.
!	!	!	!	!	!	!LO:LB:g=original	!	!	!	!	!
=15	=15-	=15-	=15-	=15-	=15-	=15	=15-	=15-	=15-	=15	=15-
!	!	!	!	!	!	!	!	!LO:TX:t=P:problem:kreska pseudotaktowa	!	!LO:TX:t=P:problem:kreska pseudotaktowa	!
2F\	Ti-	2F\	Ti-	.	.	2F/	pro-	1A	-bi.	1f,	-bi.
!LO:TX:t=P:problem:kreska pseudotaktowa	!	!LO:TX:t=P:problem:kreska pseudotaktowa	!	!LO:TX:t=P:problem:kreska pseudotaktowa	!	!	!	!	!	!	!
2F,\	-bi	2F,\	-bi	2.F/	.	4F/	-pter	.	.	.	.
.	.	.	.	.	.	4E/	.	.	.	.	.
4F\	pro-	4F\	pro-	.	.	2D/	ma-	2r	.	2a\	pro-
4F\	-pter	4F\	-pter	4G/	-mi-	.	.	.	.	.	.
!	!	!	!	!LO:TX:t=P:problem:kreska pseudotaktowa	!	!LO:TX:t=P:problem:kreska pseudotaktowa	!	!	!	!LO:TX:t=P:problem:kreska pseudotaktowa	!
4F\	ma-	4F\	ma-	2A,/	-ne	2D/	-gna(m)	4d\	pro-	2a\	-pter
!LO:TX:t=P:problem:kreska pseudotaktowa	!	!LO:TX:t=P:problem:kreska pseudotaktowa	!	!	!	!	!	!LO:TX:t=P:problem:kreska pseudotaktowa	!	!	!
4E\	-gna(m)	4E\	-gna(m)	.	.	.	.	4d\	-pter	.	.
!	!	!	!	!	!	!	!	!	!	!LO:LB:g=original	!
=16	=16-	=16	=16-	=16	=16-	=16	=16-	=16	=16-	=16	=16-
4D/	glo-	4D/	glo-	2F/	De-	2F/	glo-	2d\	ma-	2a\	ma-
4C/	-ri-	4C/	-ri-	.	.	.	.	.	.	.	.
!	!	!	!	!LO:TX:t=P:problem:kreska pseudotaktowa	!	!	!	!LO:TX:t=P:problem:kreska pseudotaktowa	!	!LO:TX:t=P:problem:kreska pseudotaktowa	!
!	!	!	!	!LO:TX:t=P:problem:kropka po kresce taktowej (w systemie poniżej)	!	!	!	!	!	!	!
4D,/	-am	4D,/	-a(m)	2.D/	-us	4F/	-ri-	2d\	-gna(m)	2a,\	-gnam
!	!	!	!	!	!	!LO:TX:t=P:problem:kreska pseudotaktowa	!	!	!	!	!
4C/	tu-	4C/	tu-	.	.	4E/	-am	.	.	.	.
!LO:TX:t=P:problem:kreska pseudotaktowa	!	!LO:TX:t=P:problem:kreska pseudotaktowa	!	!	!	!	!	!	!	!	!
1BB-X	-am	1BB-X	-am	.	.	1D	tu-	2d\	glo-	2.b-\	glo-
!	!	!	!	!LO:LB:g=original	!	!	!	!	!	!	!
.	.	.	.	4C/	.	.	.	.	.	.	.
.	.	.	.	1F/	Rex	.	.	4B-/	-ri-	.	.
!	!	!	!	!	!	!	!	!LO:TX:t=P:problem:kreska pseudotaktowa	!	!LO:TX:t=P:problem:kreska pseudotaktowa	!
.	.	.	.	.	.	.	.	4B-/	-am	4a\	-ri-
=17	=17-	=17	=17-	=17-	=17-	=17-	=17-	=17	=17-	=17	=17-
!	!	!	!	!	!	!LO:TX:t=P:problem:kreska pseudotaktowa	!	!	!	!	!
0r	.	0r	.	.	.	1C,	-am	2c/	tu-	2g,/	-am
!	!	!	!	!LO:TX:t=P:problem:kreska pseudotaktowa	!	!	!	!LO:TX:t=P:problem:kreska pseudotaktowa	!	!	!
.	.	.	.	2E/	cae-	.	.	2c/	-a(m)	2g/	tu-
!	!	!	!	!	!	!	!	!	!	!LO:TX:t=P:problem:kreska pseudotaktowa	!
.	.	.	.	2.F/	-le-	1D	Do-	2r	.	1f,	-am
!	!	!	!	!	!	!	!	!LO:TX:t=P:problem:kreska pseudotaktowa	!	!	!
.	.	.	.	.	.	.	.	2B-/	Do-	.	.
.	.	.	.	4E/	.	.	.	.	.	.	.
=18-	=18-	=18-	=18-	=18-	=18-	=18-	=18-	=18	=18-	=18	=18-
!LO:TX:t=P:problem:kreska pseudotaktowa	!	!	!	!	!	!	!	!	!	!	!
1r	.	1r	.	2D,/	-stis	2F/	.	2c\	.	2r	.
!	!	!	!	!LO:TX:t=P:problem:kreska pseudotaktowa	!	!	!	!	!	!	!
.	.	.	.	2D/	Rex	4F/	-mi-	2.c\	.	1f	Do-
!	!	!	!	!	!	!LO:TX:t=P:problem:kreska pseudotaktowa	!	!	!	!	!
.	.	.	.	.	.	4G/	-ne	.	.	.	.
2FF/	Do-	2FF/	Do-	2C/	cae-	1A	DE-	.	.	.	.
.	.	.	.	.	.	.	.	4c\	-mi-	.	.
!	!	!	!	!	!	!	!	!LO:TX:t=P:problem:kreska pseudotaktowa	!	!	!
4F\	-mi-	4F\	-mi-	2F/	-le-	.	.	2d\	-ne	4f/	-mi-
!LO:TX:t=P:problem:kreska pseudotaktowa	!	!LO:TX:t=P:problem:kreska pseudotaktowa	!	!	!	!	!	!	!	!LO:TX:t=P:problem:kreska pseudotaktowa	!
4F\	-ne	4F\	-ne	.	.	.	.	.	.	4f/	-ne
=19	=19-	=19	=19-	=19-	=19-	=19-	=19-	=19	=19-	=19	=19-
!	!	!	!	!LO:TX:t=P:problem:kreska pseudotaktowa	!	!LO:TX:t=P:problem:kreska pseudotaktowa	!	!	!	!	!
4E\	DE-	4E\	DE-	1C,	-stis	1G,	-(us)	1c	De-	1g	DE-
4D\	-(us)	4D,\	-(us)	.	.	.	.	.	.	.	.
4E\	Rex	4E\	Rex	.	.	.	.	.	.	.	.
!	!	!LO:TX:t=P:problem:kreska pseudotaktowa	!	!	!	!	!	!	!	!	!
4E\	cae-	4E\	cae-	.	.	.	.	.	.	.	.
!	!	!	!	!	!	!	!	!LO:TX:t=P:problem:kreska pseudotaktowa	!	!LO:TX:t=P:problem:kreska pseudotaktowa	!
(2.F\	-le-	(2.F\	-le-	2r	.	2.A/	Rex	1c,	-us	1f	-us.
.	.	.	.	1A\	DE-	.	.	.	.	.	.
4E\)	.	4E\)	.	.	.	4G/	cae-	.	.	.	.
=20-	=20-	=20-	=20-	=20-	=20-	=20-	=20-	=20	=20-	=20	=20-
!LO:TX:t=P:problem:kreska pseudotaktowa	!	!LO:TX:t=P:problem:kreska pseudotaktowa	!	!	!	!	!	!	!	!	!
1D	-stis	1D,	-stis	.	.	1F	-les-	2d\	Rex	2r	.
!	!	!	!	!	!	!	!	!LO:TX:t=P:problem:kreska pseudotaktowa	!	!	!
.	.	.	.	2A/	-(us)	.	.	2d\	cae-	1a	Rex
!	!	!	!	!	!	!LO:TX:t=P:problem:kreska pseudotaktowa	!	!	!	!	!
2r	.	2r	.	2F/	Pa-	1F,	-tis	(2c\	-le-	.	.
!	!	!	!	!LO:TX:t=P:problem:kreska pseudotaktowa	!	!	!	!	!	!LO:TX:t=P:problem:kreska pseudotaktowa	!
4D/	DE-	4D\	De-	2D/	-ter	.	.	2d\)	.	2a\	cae-
!	!	!LO:TX:t=P:problem:kreska pseudotaktowa	!	!	!	!	!	!	!	!	!
4D/	-(us)	4D\	-us	.	.	.	.	.	.	.	.
=21-	=21-	=21	=21-	=21	=21-	=21	=21-	=21-	=21-	=21	=21-
!	!	!	!	!	!	!	!	!LO:TX:t=P:problem:kreska pseudotaktowa	!	!	!
2D\	Pa-	2D/	Pa-	2r	.	1.F	De-	1d,	-stis	1a	-les-
!	!	!	!	!LO:TX:t=P:problem:kreska pseudotaktowa	!	!	!	!	!	!	!
4D\	-ter	4D/	-ter	[<2A\	Pa-	.	.	.	.	.	.
!LO:TX:t=P:problem:kreska pseudotaktowa	!	!	!	!	!	!	!	!	!	!	!
!LO:SIC:v:t=custos:D	!	!LO:TX:t=P:problem:kreska pseudotaktowa	!	!	!	!	!LO:LB:g=original	!	!	!	!
4D\	O-	4D/	o-	.	.	.	.	.	.	.	.
!LO:LB:g=original	!	!LO:LB:g=original	!	!	!	!	!	!	!	!	!
2.D/	-mni-	2.D/	-mni-	2A\]	.	.	.	2r	.	2d,/	-tis
!	!	!	!	!	!	!LO:TX:t=P:problem:kreska pseudotaktowa	!	!	!	!LO:TX:t=P:problem:kreska pseudotaktowa	!
.	.	.	.	4A,\	-ter	2F/	-us	1d\	DE-	(2a\	De-
4D/	-po-	4D/	-po-	4A\	o-	.	.	.	.	.	.
=22-	=22-	=22-	=22-	=22-	=22-	=22	=22-	=22-	=22-	=22	=22-
!	!	!LO:TX:t=P:problem:kreska pseudotaktowa	!	!	!	!	!	!	!	!	!
*	*	*	*	*	*	*lig	*	*	*	*	*
1GG	-tens	1GG	-tens	2.G/	-mni-	1D	Pa-	.	.	2b-X\)	.
!	!	!	!	!	!	!	!	!LO:TX:t=P:problem:kreska pseudotaktowa	!	!	!
.	.	.	.	.	.	.	.	2d\	-us	2b-,\	-us
.	.	.	.	4G/	-po-	.	.	.	.	.	.
!	!	!	!	!LO:TX:t=P:problem:kreska pseudotaktowa	!	!	!	!	!	!	!
2r	.	2r	.	1A	-tens	1F	.	(2c\	Pa-	(4cc\	Pa-
.	.	.	.	.	.	.	.	.	.	4b-\	.
4D\	DE-	4D/	DE-	.	.	.	.	2d\)	.	4a\	.
!LO:TX:t=P:problem:kreska pseudotaktowa	!	!	!	!	!	!	!	!	!	!	!
4D\	-(us)	4D/	-(us)	.	.	.	.	.	.	4g\)	.
*	*	*	*	*	*	*Xlig	*	*	*	*	*
=23	=23-	=23-	=23-	=23	=23-	=23-	=23-	=23-	=23-	=23-	=23-
!	!	!	!	!	!	!LO:TX:t=P:problem:kreska pseudotaktowa	!	!LO:TX:t=P:problem:kreska pseudotaktowa	!	!	!
*	*	*	*	*	*	*	*	*	*	*lig	*
2D\	Pa-	2D\	Pa-	2r	.	1F,	-ter	1d	-ter	1a	.
4D\	-ter	4D,\	-ter	2F/	De-	.	.	.	.	.	.
!	!	!LO:TX:t=P:problem:kreska pseudotaktowa	!	!	!	!	!	!	!	!	!
4D\	O-	4D\	o-	.	.	.	.	.	.	.	.
!	!	!	!	!LO:TX:t=P:problem:kreska pseudotaktowa	!	!	!	!	!	!LO:SIC:v:t=custos:a	!
2.G\	-mni-	2.G\	-mni-	1G	-us	1D	o-	2r	.	1b-	.
.	.	.	.	.	.	.	.	2d\	O-	.	.
4GG/	-po-	4GG/	-po-	.	.	.	.	.	.	.	.
*	*	*	*	*	*	*	*	*	*	*Xlig	*
!	!	!	!	!	!	!	!	!	!	!LO:LB:g=original	!
=24-	=24-	=24-	=24-	=24	=24-	=24-	=24-	=24-	=24-	=24-	=24-
!LO:TX:t=P:problem:kreska pseudotaktowa	!	!LO:TX:t=P:problem:kreska pseudotaktowa	!	!	!	!	!	!	!	!	!
1D,	-tens.	1D	-tens	1A	Pa-	2.F/	-mni-	2d\	-mni-	2a,\	-ter
!	!	!	!	!	!	!	!	!LO:TX:t=P:problem:kreska pseudotaktowa	!	!	!
.	.	.	.	.	.	.	.	2d\	-po-	1f	o-
.	.	.	.	.	.	4F/	-po-	.	.	.	.
!	!	!	!	!	!	!LO:TX:t=P:problem:kreska pseudotaktowa	!	!LO:TX:t=P:problem:kreska pseudotaktowa	!	!	!
0r	.	0r	.	1.G	-tesr	1C	-tens	0c,	-tens.	.	.
.	.	.	.	.	.	.	.	.	.	4e/	.
!	!	!	!	!	!	!	!	!	!	!LO:TX:t=P:problem:kreska pseudotaktowa	!
.	.	.	.	.	.	.	.	.	.	4d/	.
!	!	!	!	!	!	!	!LO:LB:g=original	!	!	!	!
=25-	=25-	=25-	=25-	=25-	=25-	=25	=25-	=25	=25-	=25	=25-
.	.	.	.	.	.	1C	Do-	.	.	2.e/	-mni-
!	!	!	!	!LO:TX:t=P:problem:kreska pseudotaktowa	!	!	!	!	!	!	!
!	!	!	!	!LO:SIC:v:t=custos:F	!	!	!	!	!	!	!
.	.	.	.	2G/	O-	.	.	.	.	.	.
.	.	.	.	.	.	.	.	.	.	4e/	-po-
!	!	!	!	!LO:LB:g=original	!	!	!	!	!	!LO:TX:t=P:problem:kreska pseudotaktowa	!
2r	.	2r	.	2F/	-mni-	2F/	.	2A/	Do-	1f	-tens
!	!	!	!	!LO:TX:t=P:problem:kreska pseudotaktowa	!	!	!	!	!	!	!
1F\	D(o)-	1F\	Do-	2D/	-po-	4F/	-mi-	4A/	-mi-	.	.
!	!	!	!	!	!	!LO:TX:t=P:problem:kreska pseudotaktowa	!	!	!	!	!
.	.	.	.	.	.	4F/	-ne	4B-/	-ne	.	.
=26-	=26-	=26-	=26-	=26	=26-	=26	=26-	=26-	=26-	=26	=26-
!	!	!	!	!LO:TX:t=P:problem:kreska pseudotaktowa	!	!	!	!	!	!LO:TX:t=P:problem:kreska pseudotaktowa	!
.	.	.	.	1C,	-tens	2G/	Fi-	2c/	Fi-	0r	.
!	!	!	!	!	!	!LO:TX:t=P:problem:kreska pseudotaktowa	!	!LO:TX:t=P:problem:kreska pseudotaktowa	!	!	!
4E\	-(mi)-	4E\	-mi-	.	.	2G/	-li	2c/	-li	.	.
!LO:TX:t=P:problem:kreska pseudotaktowa	!	!LO:TX:t=P:problem:kreska pseudotaktowa	!	!	!	!	!	!	!	!	!
4E\	-ne	4E\	-ne	.	.	.	.	.	.	.	.
2F\	Fi-	2F\	Fi-	2r	.	2A/	u-	2c/	u-	.	.
2F\	-li	2F\	-li	1F/	Do-	2A/	-ni-	2c/	-ni-	.	.
=27-	=27-	=27-	=27-	=27-	=27-	=27-	=27-	=27-	=27-	=27	=27-
2.C/	u-	2.C/	U-	.	.	2G/	-ge-	4c/	-ge-	2r	.
.	.	.	.	.	.	.	.	4c/	-ni-	.	.
!	!	!	!	!	!	!	!	!LO:TX:t=P:problem:kreska pseudotaktowa	!	!	!
.	.	.	.	4E/	-mi-	4G/	-ni-	2c,/	-te	1cc	Je-
!LO:TX:t=P:problem:kreska pseudotaktowa	!	!	!	!LO:TX:t=P:problem:kreska pseudotaktowa	!	!LO:TX:t=P:problem:kreska pseudotaktowa	!	!	!	!	!
4BB-/	-ni-	4BB-/	-ni	4E/	-ne	4G,/	-te	.	.	.	.
4AA/	-ge-	4AA/	ge-	2F/	Fi-	2A/	Je-	2r	.	.	.
4GG/	-ni-	4GG/	-ni-	.	.	.	.	.	.	.	.
!LO:TX:t=P:problem:kreska pseudotaktowa	!	!LO:TX:t=P:problem:kreska pseudotaktowa	!	!LO:TX:t=P:problem:kreska pseudotaktowa	!	!LO:TX:t=P:problem:kreska pseudotaktowa	!	!	!	!LO:TX:t=P:problem:kreska pseudotaktowa	!
2FF/	-te	2FF/	-te	2F/	-li	2A/	-zu	1f\	Je-	2cc\	-su
=28	=28-	=28	=28-	=28	=28-	=28	=28-	=28-	=28-	=28	=28-
*	*	*	*	*	*	*	*	*	*	*	*ij
2C/	Je-	2C/	Je-	2r	.	2G/	X-	.	.	(2.cc\	Je-
!LO:TX:t=P:problem:kreska pseudotaktowa	!	!	!	!	!	!LO:TX:t=P:problem:kreska pseudotaktowa	!	!	!	!	!
2C/	-su	2C/	-su	1c	U-	2G,/	-te	2e,\	-su	.	.
.	.	.	.	.	.	.	.	.	.	4b-\)	.
2D\	X-	2D\	X-	.	.	2F/	Do-	2f\	X-	2a,\	-su
*	*	*	*	*	*	*	*	*	*	*	*Xij
!LO:TX:t=P:problem:kreska pseudotaktowa	!	!LO:TX:t=P:problem:kreska pseudotaktowa	!	!LO:TX:t=P:problem:kreska pseudotaktowa	!	!	!	!LO:TX:t=P:problem:kreska pseudotaktowa	!	!	!
2D\	-te	2D\	-te	2Bn\	-ni-	4F/	-mi-	2f\	-te	1f/	Chri-
.	.	.	.	.	.	4F/	-ne	.	.	.	.
!	!	!	!	!	!	!	!	!LO:LB:g=original	!	!	!
=29	=29-	=29	=29-	=29	=29-	=29-	=29-	=29	=29-	=29	=29-
2C/	Do-	2C/	D(o)-	4c\	-ge-	2G/	DE-	2r	.	.	.
.	.	.	.	4c\	-ni-	.	.	.	.	.	.
!	!	!	!	!LO:TX:t=P:problem:kreska pseudotaktowa	!	!LO:TX:t=P:problem:kreska pseudotaktowa	!	!	!	!	!
4C/	-mi-	4C/	-(mi)-	2c\	-te	2G/	-(us)	1c	Do-	2e/	.
!LO:TX:t=P:problem:kreska pseudotaktowa	!	!LO:TX:t=P:problem:kreska pseudotaktowa	!	!	!	!	!	!	!	!	!
4C/	-ne	4C/	-ne	.	.	.	.	.	.	.	.
!	!	!	!	!	!	!	!	!	!	!LO:TX:t=P:problem:kreska pseudotaktowa	!
4FF/	De-	4FF/	De-	2r	.	2.F/	a-	.	.	1f,	-ste
4FF,/	-us	4FF,/	-(us)	.	.	.	.	.	.	.	.
!	!	!	!	!LO:TX:t=P:problem:kreska pseudotaktowa	!	!	!	!	!	!	!
4F\	a-	4F\	a-	2A\	Je-	.	.	4c/	-mi-	.	.
!LO:TX:t=P:problem:kreska pseudotaktowa	!	!LO:TX:t=P:problem:kreska pseudotaktowa	!	!	!	!	!	!LO:TX:t=P:problem:kreska pseudotaktowa	!	!	!
4F\	-gn(us)	4F\	-gn(us)	.	.	4E,/	-gn(us)	4c/	-ne	.	.
!	!	!LO:LB:g=original	!	!	!	!	!	!	!	!	!
=30	=30-	=30	=30-	=30	=30-	=30-	=30-	=30	=30-	=30	=30-
2F\	De-	2F\	De-	2A,\	-su	1D	De-	(2c\	De-	2r	.
!LO:TX:t=P:problem:kreska pseudotaktowa	!	!LO:TX:t=P:problem:kreska pseudotaktowa	!	!LO:TX:t=P:problem:kreska pseudotaktowa	!	!	!	!	!	!LO:TX:t=P:problem:kreska pseudotaktowa	!
2F\	-i	2F\	-i	2.A/	Je-	.	.	2d\)	.	[2f/	Qui
!	!	!	!	!	!	!LO:TX:t=P:problem:kreska pseudotaktowa	!	!LO:TX:t=P:problem:kreska pseudotaktowa	!	!	!
(4.F\	Fi-	(4.F\	Fi-	.	.	1F,	-i	1d	-us	2f/],	.
.	.	.	.	4G/	.	.	.	.	.	.	.
8E\)	.	8E\)	.	.	.	.	.	.	.	.	.
4D\	.	4D/	.	(4F/	-su	.	.	.	.	2.d/	to-
!LO:TX:t=P:problem:kreska pseudotaktowa	!	!LO:TX:t=P:problem:kreska pseudotaktowa	!	!	!	!	!	!	!	!	!
4C\	.	4C/	.	4E,/)	.	.	.	.	.	.	.
!LO:LB:g=original	!	!	!	!	!	!	!	!	!	!	!
=31	=31-	=31	=31-	=31-	=31-	=31	=31-	=31	=31-	=31-	=31-
2BB-/	.	2BB-/	.	2D/	X-	2.F/	Fi-	2r	.	.	.
.	.	.	.	.	.	.	.	.	.	4e/	.
!	!	!	!	!LO:TX:t=P:problem:kreska pseudotaktowa	!	!	!	!	!	!LO:TX:t=P:problem:kreska pseudotaktowa	!
4AA/	-li-	4AA/	-li-	2C/	-te	.	.	1c	Fi-	[2f/	.
4BB-/	-us	4BB-/	-us	.	.	4F/	-li-	.	.	.	.
1C	Pa-	1C	Pa-	2r	.	2G,/	-us	.	.	2f/]	.
.	.	.	.	2c\	Fi-	2G/	Pa-	4c/	-li-	2e/	.
!	!	!	!	!	!	!	!	!LO:TX:t=P:problem:kreska pseudotaktowa	!	!	!
.	.	.	.	.	.	.	.	4B-,/	-us	.	.
=32-	=32-	=32-	=32-	=32-	=32-	=32-	=32-	=32	=32-	=32-	=32-
!LO:TX:t=P:problem:kreska pseudotaktowa	!	!LO:TX:t=P:problem:kreska pseudotaktowa	!	!	!	!LO:TX:t=P:problem:kreska pseudotaktowa	!	!	!	!	!
1FF	-tris.	1FF,	-tris	2c\	-li-	1F,	-tris	(2.A/	Pa-	2f/	-lis
!	!	!	!	!LO:TX:t=P:problem:kreska pseudotaktowa	!	!	!	!	!	!LO:TX:t=P:problem:kreska pseudotaktowa	!
!	!	!	!	!LO:SIC:v:t=custos:A	!	!	!	!	!	!LO:SIC:v:t=custos:cc	!
.	.	.	.	2c\	-us	.	.	.	.	2cc\	pec-
.	.	.	.	.	.	.	.	4G/)	.	.	.
!	!	!	!	!LO:LB:g=original	!	!LO:LB:g=original	!	!LO:TX:t=P:problem:kreska pseudotaktowa	!	!LO:LB:g=original	!
2r	.	2r	.	2.A/	Pa-	1F	Qui	1F	-tris.	2cc\	-ca-
!LO:TX:t=P:problem:kreska pseudotaktowa	!	!	!	!	!	!	!	!	!	!LO:TX:t=P:problem:kreska pseudotaktowa	!
2F\	Qui	2F\	Qui	.	.	.	.	.	.	2cc\	-ta
.	.	.	.	4G/	.	.	.	.	.	.	.
=33	=33-	=33-	=33-	=33-	=33-	=33-	=33-	=33	=33-	=33	=33-
!	!	!	!	!LO:TX:t=P:problem:kreska pseudotaktowa	!	!	!	!	!	!LO:TX:t=P:problem:kreska pseudotaktowa	!
2F\	tol-	2F\	tol-	1F,	-tris	2F/	tol-	2r	.	[1a	mun-
!	!	!	!	!	!	!	!	!LO:TX:t=P:problem:kreska pseudotaktowa	!	!	!
4F\	-lis	4F\	-lis	.	.	4F,/	-lis	2f\	Qui	.	.
!LO:TX:t=P:problem:kreska pseudotaktowa	!	!LO:TX:t=P:problem:kreska pseudotaktowa	!	!	!	!LO:TX:t=P:problem:kreska pseudotaktowa	!	!	!	!	!
4F\	pec-	4F\	pec-	.	.	4F/	pec-	.	.	.	.
!	!	!	!	!LO:TX:t=P:problem:kreska pseudotaktowa	!	!	!	!	!	!	!
2D/	-ca-	2D/	-ca-	1r	.	2F/	-ca-	2f\	tol-	2.a\]	.
!LO:TX:t=P:problem:kreska pseudotaktowa	!	!	!	!	!	!LO:TX:t=P:problem:kreska pseudotaktowa	!	!	!	!	!
2D/	-ta	2D/	-ta	.	.	2F/	-ta	4f\	-lis	.	.
!	!	!	!	!	!	!	!	!LO:TX:t=P:problem:kreska pseudotaktowa	!	!	!
.	.	.	.	.	.	.	.	4f\	pec-	8g\L	.
.	.	.	.	.	.	.	.	.	.	8f\J	.
=34	=34-	=34-	=34-	=34	=34-	=34	=34-	=34	=34-	=34-	=34-
!	!	!	!	!	!	!	!	!	!	!LO:TX:t=P:problem:kreska pseudotaktowa	!
2C/	mun-	2C/	mun-	1.c	mi-	2G/	mun-	2f\	-ca-	1e,	-di
!LO:TX:t=P:problem:kreska pseudotaktowa	!	!LO:TX:t=P:problem:kreska pseudotaktowa	!	!	!	!LO:TX:t=P:problem:kreska pseudotaktowa	!	!LO:TX:t=P:problem:kreska pseudotaktowa	!	!	!
2C,/	-di	2C/	-di	.	.	2G,/	-di	2e\	-ta	.	.
2r	.	2r	.	.	.	2.A/	mi-	1f	mun-	1r	.
!	!	!	!	!LO:TX:t=P:problem:kreska pseudotaktowa	!	!	!	!	!	!	!
1F\	mi-	1F\	mi-	2c\	.	.	.	.	.	.	.
.	.	.	.	.	.	4G/	-ſe-	.	.	.	.
=35-	=35-	=35-	=35-	=35	=35-	=35-	=35-	=35-	=35-	=35-	=35-
!	!	!	!	!	!	!	!	!LO:TX:t=P:problem:kreska pseudotaktowa	!	!	!
.	.	.	.	1A	-re-	2F/	-re-	0c	-di	2r	.
!LO:TX:t=P:problem:kreska pseudotaktowa	!	!	!	!	!	!LO:TX:t=P:problem:kreska pseudotaktowa	!	!	!	!	!
2F\	-ſe-	2F\	-ſe-	.	.	2F/	-re	.	.	1f	Sus-
2C/	-re-	2C/	-re-	2G,/	-re	2G/	no-	.	.	.	.
*	*	*	*	*	*ij	*	*	*	*	*	*
!LO:TX:t=P:problem:kreska pseudotaktowa	!	!LO:TX:t=P:problem:kreska pseudotaktowa	!	!	!	!	!	!	!	!	!
2C/	-re	2C/	-re	1c\	mi-	4G,/	-bis	.	.	2e/	-ci-
!	!	!	!	!	!	!LO:TX:t=P:problem:kreska pseudotaktowa	!	!	!	!	!
.	.	.	.	.	.	4G/	Qui	.	.	.	.
=36	=36-	=36	=36-	=36-	=36-	=36	=36-	=36	=36-	=36-	=36-
!	!	!	!	!	!	!	!	!	!	!LO:TX:t=P:problem:kreska pseudotaktowa	!
1F	no-	1F	no-	.	.	2F/	tol-	2r	.	1f,	-pe
!	!	!	!	!LO:TX:t=P:problem:kreska pseudotaktowa	!	!	!	!	!	!	!
.	.	.	.	2c\	-se-	4F/	-lis	1c	Suſ-	.	.
!	!	!	!	!	!	!LO:TX:t=P:problem:kreska pseudotaktowa	!	!	!	!	!
.	.	.	.	.	.	4F/	pec-	.	.	.	.
!LO:TX:t=P:problem:kreska pseudotaktowa	!	!LO:TX:t=P:problem:kreska pseudotaktowa	!	!	!	!	!	!	!	!	!
1FF,	-bis.	1FF,	-bis.	2.A/	-re-	2F/	-ca-	.	.	(2c/	de-
!	!	!	!	!	!	!LO:TX:t=P:problem:kreska pseudotaktowa	!	!	!	!	!
.	.	.	.	.	.	2F/	-ta	4c/	-ci-	1cc\)	.
!	!	!	!	!	!	!	!	!LO:TX:t=P:problem:kreska pseudotaktowa	!	!	!
.	.	.	.	4G,/	-re	.	.	4c/	-pe	.	.
*	*	*	*	*	*Xij	*	*	*	*	*	*
!	!	!	!	!	!	!	!	!LO:LB:g=original	!	!	!
=37	=37-	=37	=37-	=37-	=37-	=37	=37-	=37	=37-	=37-	=37-
2r	.	2r	.	4F/	no-	2F/	mun-	2.A/	de-	.	.
.	.	.	.	4G/	.	.	.	.	.	.	.
!	!	!	!	!	!	!LO:TX:t=P:problem:kreska pseudotaktowa	!	!	!	!LO:TX:t=P:problem:kreska pseudotaktowa	!
1F	Sus-	1F	Sus-	(4A/	.	2F/	-di,	.	.	2cc\	-pre-
!	!	!	!	!LO:TX:t=P:problem:kreska pseudotaktowa	!	!	!	!LO:TX:t=P:problem:kreska pseudotaktowa	!	!	!
.	.	.	.	4B-/)	.	.	.	4G/	-pre-	.	.
.	.	.	.	0c	.	2F/	Sus-	4F/	-ca-	2cc\	-ca-
.	.	.	.	.	.	.	.	4F/	-ti-	.	.
4F\	-ci-	4F\	-ci-	.	.	4F/	-ci-	1f\	-o-	2cc\	-ti-
!	!	!LO:TX:t=P:problem:kreska pseudotaktowa	!	!	!	!	!	!	!	!	!
!LO:TX:t=P:problem:kreska pseudotaktowa	!	!LO:SIC:v:t=custos:C	!	!	!	!LO:TX:t=P:problem:kreska pseudotaktowa	!	!	!	!	!
4F\	-pe	4F\	-pe	.	.	4F/	-pe	.	.	.	.
!	!	!LO:LB:g=original	!	!	!	!	!	!	!	!	!
=38	=38-	=38	=38-	=38-	=38-	=38	=38-	=38-	=38-	=38-	=38-
4C/	de-	4C/	de-	.	.	4E/	de-	.	.	2.g\	-o-
4C/	-pre-	4C/	-pre-	.	.	4E/	-pre-	.	.	.	.
!	!	!	!	!	!	!	!	!LO:TX:t=P:problem:kreska pseudotaktowa	!	!	!
4C/	-ca-	4C/	-ca-	.	.	4E/	-ca-	2e\	-nem	.	.
!LO:TX:t=P:problem:kreska pseudotaktowa	!	!LO:TX:t=P:problem:kreska pseudotaktowa	!	!	!	!	!	!	!	!	!
4C/	-ti-	4C/	-ti-	.	.	4E/	-ti-	.	.	4a\	.
!	!	!	!	!	!	!	!	!	!	!LO:TX:t=P:problem:kreska pseudotaktowa	!
2BB-X/	-o-	2BB-X/	-o-	0d	-bis.	2D/	-o-	1f	no-	[1.b-X	.
!LO:TX:t=P:problem:kreska pseudotaktowa	!	!LO:TX:t=P:problem:kreska pseudotaktowa	!	!	!	!LO:TX:t=P:problem:kreska pseudotaktowa	!	!	!	!	!
2BB-/	-nem	2BB-/	-nem	.	.	2D/	-nem	.	.	.	.
!	!	!	!	!	!	!LO:LB:g=original	!	!	!	!	!
=39	=39-	=39	=39-	=39-	=39-	=39	=39-	=39-	=39-	=39	=39-
!	!	!	!	!LO:TX:t=P:problem:kreska pseudotaktowa	!	!	!	!LO:TX:t=P:problem:kreska pseudotaktowa	!	!	!
2BB-/	no-	2AA/	no-	.	.	2D/	no-	0f	-stram	.	.
4BB-/	-stram	4BB-/	-stra(m)	.	.	4D,/	-stra(m)	.	.	2b-\]	-nem
!LO:TX:t=P:problem:kreska pseudotaktowa	!	!	!	!	!	!	!	!	!	!	!
!LO:SIC:v:t=custos:D	!	!LO:TX:t=P:problem:kreska pseudotaktowa	!	!	!	!LO:TX:t=P:problem:kreska pseudotaktowa	!	!	!	!	!
!LO:LB:g=original	!	!	!	!	!	!	!	!	!	!	!
4C/	Qui	4C/	qui	.	.	4E/	Qui	.	.	.	.
*	*	*	*	*	*	*	*	*	*	*lig	*
4D\	se-	4D\	se-	2r	.	2F/	se-	.	.	1a	nos-
4E\	-des	4E\	-des	.	.	.	.	.	.	.	.
!LO:TX:t=P:problem:kreska pseudotaktowa	!	!LO:TX:t=P:problem:kreska pseudotaktowa	!	!LO:TX:t=P:problem:kreska pseudotaktowa	!	!	!	!	!	!	!
2F\	ad	2F\	ad	2c\	Qui	4F/	-des	.	.	.	.
!	!	!	!	!	!	!LO:TX:t=P:problem:kreska pseudotaktowa	!	!	!	!	!
.	.	.	.	.	.	4F/	ad	.	.	.	.
=40	=40-	=40	=40-	=40	=40-	=40	=40-	=40	=40-	=40-	=40-
2F\	dex-	2F\	dex-	(2.c\	se-	2C/	dex-	1r	.	1g	.
4E\	-te-	4E\	-te-	.	.	4C/	-te-	.	.	.	.
4E\	-ra(m)	4E\	-ra(m)	4B-\)	.	4C/	-ra(m)	.	.	.	.
!LO:TX:t=P:problem:kreska pseudotaktowa	!	!LO:TX:t=P:problem:kreska pseudotaktowa	!	!	!	!LO:TX:t=P:problem:kreska pseudotaktowa	!	!	!	!	!
*	*	*	*	*	*	*	*	*	*	*Xlig	*
!	!	!	!	!LO:TX:t=P:problem:kreska pseudotaktowa	!	!	!	!	!	!	!
2.F\	Pa-	2.F\	Pa-	1A,	-des	2.D/	Pa-	2r	.	0f	-tram
.	.	.	.	.	.	.	.	1c\	mi-	.	.
!LO:TX:t=P:problem:kreska pseudotaktowa	!	!LO:TX:t=P:problem:kreska pseudotaktowa	!	!	!	!LO:TX:t=P:problem:kreska pseudotaktowa	!	!	!	!	!
4E\	-tris	4E,\	-tris	.	.	4E/	-tris	.	.	.	.
!	!	!	!	!	!	!	!	!	!	!LO:LB:g=original	!
=41	=41-	=41	=41-	=41	=41-	=41	=41-	=41-	=41-	=41-	=41-
4D/	mi-	4D/	mi-	2r	.	2.F/	mi-	.	.	.	.
4D/	-ſe-	4D/	-ſe-	.	.	.	.	.	.	.	.
!	!	!	!	!LO:TX:t=P:problem:kreska pseudotaktowa	!	!	!	!LO:TX:t=P:problem:kreska pseudotaktowa	!	!	!
4D/	-re-	4D/	-re-	2F/	ad	.	.	2Bn/	-se-	.	.
!	!	!LO:TX:t=P:problem:kreska pseudotaktowa	!	!	!	!LO:TX:t=P:problem:kreska pseudotaktowa	!	!	!	!	!
4D/	-re	4D/	-re	.	.	4F/	-ſe-	.	.	.	.
!	!	!	!	!	!	!	!	!	!	!LO:TX:t=P:problem:kreska pseudotaktowa	!
1C	no-	1C	no-	2F/	dex-	2G/	-re-	2c\	-re-	1r	.
!	!	!	!	!	!	!LO:TX:t=P:problem:kreska pseudotaktowa	!	!	!	!	!
.	.	.	.	4E/	-te-	2G/	-re	2c,\	-re	.	.
.	.	.	.	4E/	-ra(m)	.	.	.	.	.	.
=42-	=42-	=42-	=42-	=42-	=42-	=42	=42-	=42-	=42-	=42	=42-
!LO:TX:t=P:problem:kreska pseudotaktowa	!	!LO:TX:t=P:problem:kreska pseudotaktowa	!	!	!	!	!	!	!	!	!
1FF,	-bis.	1FF	-bis	2F/	Pa-	1A	no-	1c	no-	2r	.
!	!	!	!	!LO:TX:t=P:problem:kreska pseudotaktowa	!	!	!	!	!	!	!
.	.	.	.	2F/	-tris	.	.	.	.	1f	mi-
!	!	!	!	!LO:LB:g=original	!	!LO:TX:t=P:problem:kreska pseudotaktowa	!	!LO:TX:t=P:problem:kreska pseudotaktowa	!	!	!
1r	.	1r	.	2C/	mi-	1G,	-bis.	1c	-bis.	.	.
!	!	!	!	!LO:TX:t=P:problem:kreska pseudotaktowa	!	!	!	!	!	!	!
.	.	.	.	2C/	-se-	.	.	.	.	2e/	-se-
=43-	=43-	=43-	=43-	=43	=43-	=43	=43-	=43	=43-	=43-	=43-
!LO:TX:t=P:problem:kreska pseudotaktowa	!	!	!	!	!	!	!	!	!	!	!
2r	.	2r	.	4D/	-re-	2.F/	Quo-	2r	.	2.a\	-re-
.	.	.	.	4E/	-re	.	.	.	.	.	.
!LO:TX:t=P:problem:kreska pseudotaktowa	!	!LO:TX:t=P:problem:kreska pseudotaktowa	!	!	!	!	!	!	!	!	!
[<2F\	Quo-	[2F\	Quo-	2F/	no-	.	.	1c	Quo-	.	.
!	!	!	!	!	!	!LO:TX:t=P:problem:kreska pseudotaktowa	!	!	!	!LO:TX:t=P:problem:kreska pseudotaktowa	!
.	.	.	.	.	.	4F/	-ni-	.	.	4a\	-re
!	!	!	!	!LO:TX:t=P:problem:kreska pseudotaktowa	!	!	!	!	!	!	!
4F\]	.	4F\]	.	1C	-bis.	2G,/	-am	.	.	1g	no-
4F\	-ni-	4F\	-ni-	.	.	.	.	.	.	.	.
!	!	!	!	!	!	!LO:TX:t=P:problem:kreska pseudotaktowa	!	!LO:TX:t=P:problem:kreska pseudotaktowa	!	!	!
4E\	-am	4E,\	-am	.	.	2G/	Tu	2c/	-ni-	.	.
!LO:TX:t=P:problem:kreska pseudotaktowa	!	!	!	!	!	!	!	!	!	!	!
4E\	Tu	4E\	Tu	.	.	.	.	.	.	.	.
=44	=44-	=44-	=44-	=44	=44-	=44	=44-	=44	=44-	=44-	=44-
!	!	!	!	!	!	!	!	!	!	!LO:TX:t=P:problem:kreska pseudotaktowa	!
2.F\	so-	2.F\	so-	2r	.	2.A/	so-	2c,/	-am	1f	-bis
.	.	.	.	2C/	Tu	.	.	2A/	Tu	.	.
!LO:TX:t=P:problem:kreska pseudotaktowa	!	!LO:TX:t=P:problem:kreska pseudotaktowa	!	!	!	!LO:TX:t=P:problem:kreska pseudotaktowa	!	!	!	!	!
4E,\	-l(us)	4E\	-l(us)	.	.	4G/	-l(us)	.	.	.	.
!	!	!LO:LB:g=original	!	!	!	!	!	!	!	!	!
4D/	San-	4D/	San-	2.D/	so-	2.F/	Do-	1d	so-	1r	.
4C,/	-ct(us)	4C/	-ct(us)	.	.	.	.	.	.	.	.
!LO:TX:t=P:problem:kreska pseudotaktowa	!	!LO:TX:t=P:problem:kreska pseudotaktowa	!	!	!	!	!	!	!	!	!
2BB-X,/	Tu	2BB-X,/	Tu	.	.	.	.	.	.	.	.
!	!	!	!	!	!	!LO:TX:t=P:problem:kreska pseudotaktowa	!	!	!	!	!
.	.	.	.	4E/	-lus	4F/	-mi-	.	.	.	.
!	!	!	!	!	!	!LO:LB:g=original	!	!	!	!	!
=45	=45-	=45	=45-	=45-	=45-	=45	=45-	=45-	=45-	=45-	=45-
4AA/	so-	4AA/	so-	2.F/	Do-	2F,/	-nus	2c,\	-l(us)	2r	.
4AA/	-lus	4AA,/	-l(us)	.	.	.	.	.	.	.	.
!	!	!	!	!	!	!	!	!LO:TX:t=P:problem:kreska pseudotaktowa	!	!LO:TX:t=P:problem:kreska pseudotaktowa	!
4BB-/	Do-	4BB-/	Do-	.	.	(4F/	Tu	2d\	al-	2f/	Tu
!LO:TX:t=P:problem:kreska pseudotaktowa	!	!LO:TX:t=P:problem:kreska pseudotaktowa	!	!	!	!LO:TX:t=P:problem:kreska pseudotaktowa	!	!	!	!	!
4BB-/	-mi-	4BB-/	-mi-	4E/	-mi-	4G/)	.	.	.	.	.
!	!	!	!	!LO:TX:t=P:problem:kreska pseudotaktowa	!	!	!	!	!	!	!
4FF,/	-n(us)	4FF,/	-n(us)	1F,	-n(us)	1A	so-	2c\	-tiſ-	2f/	So-
4FF/	so-	4FF/	so-	.	.	.	.	.	.	.	.
!	!	!	!	!	!	!	!	!LO:TX:t=P:problem:kreska pseudotaktowa	!	!	!
!LO:TX:t=P:problem:kreska pseudotaktowa	!	!	!	!	!	!	!	!LO:SIC:v:t=custos:d	!	!LO:TX:t=P:problem:kreska pseudotaktowa	!
[<2F\	-lus	1F\	-lus	.	.	.	.	2c\	-si-	2f/	-lus
!	!	!	!	!	!	!	!	!LO:LB:g=original	!	!	!
=46	=46-	=46-	=46-	=46	=46-	=46-	=46-	=46	=46-	=46	=46-
!	!	!	!	!LO:TX:t=P:problem:kreska pseudotaktowa	!	!	!	!	!	!	!
2F\]	.	.	.	1r	.	2B-,\	-lus	2d,\	-mus	2.g/	Do-
!	!	!	!	!	!	!LO:TX:t=P:problem:kreska pseudotaktowa	!	!LO:TX:t=P:problem:kreska pseudotaktowa	!	!	!
4E\	.	4E\	.	.	.	2B-\	al-	2e\	al-	.	.
!	!	!LO:TX:t=P:problem:kreska pseudotaktowa	!	!	!	!	!	!	!	!LO:TX:t=P:problem:kreska pseudotaktowa	!
4E\	al-	4E\	al-	.	.	.	.	.	.	4g/	-mi-
!	!	!	!	!	!	!	!	!	!	!LO:TX:t=P:problem:kreska pseudotaktowa	!
2F\	-tiſ-	2F\	-tiſ-	2r	.	2A/	-tiſ-	2.c/	-tiſ-	1f,	-n(us)
4E\	-si-	4E\	-si-	1F/	Je-	4A/	-si-	.	.	.	.
!LO:TX:t=P:problem:kreska pseudotaktowa	!	!LO:TX:t=P:problem:kreska pseudotaktowa	!	!	!	!LO:TX:t=P:problem:kreska pseudotaktowa	!	!	!	!	!
4D\	-mus	4D,\	-m(us)	.	.	4A/	-m(us)	4c/	-si-	.	.
=47	=47-	=47	=47-	=47-	=47-	=47	=47-	=47-	=47-	=47	=47-
!	!	!	!	!	!	!	!	!LO:TX:t=P:problem:kreska pseudotaktowa	!	!	!
2C/	Je-	2C/	Je-	.	.	2G/	Je-	1c,	-m(us).	2r	.
!	!	!	!	!LO:TX:t=P:problem:kreska pseudotaktowa	!	!	!	!	!	!LO:TX:t=P:problem:kreska pseudotaktowa	!
2C,/	-su	2C/	-su	2E/	-su	2G/	-su	.	.	2cc\	Cum
!	!	!	!	!	!	!LO:TX:t=P:problem:kreska pseudotaktowa	!	!	!	!	!
2F\	X-	2F\	X-	1F	X-	1A	X-	2f\	Je-	2cc\	San-
!	!	!LO:TX:t=P:problem:fragment skreślony	!	!	!	!	!	!LO:TX:t=P:problem:kreska pseudotaktowa	!	!LO:TX:t=P:problem:kreska pseudotaktowa	!
2F\	-te	2F\	-te	.	.	.	.	2f\	-su	2cc,\	-cto
!LO:PB:g=original	!	!	!	!	!	!	!	!	!	!	!
=48-	=48-	=48-	=48-	=48-	=48-	=48	=48-	=48	=48-	=48	=48-
*	*	*^	*	*	*	*	*	*	*	*	*
!LO:TX:t=P:problem:kreska pseudotaktowa	!	!LO:TX:t=P:problem:kreska pseudotaktowa	!	!	!LO:TX:t=P:problem:kreska pseudotaktowa	!	!	!	!	!	!	!
1r	.	1r	1ryy	.	1C,	-te	2G,/	-te	(2c\	X-	(2.cc\	San-
.	.	.	.	.	.	.	2G/	Cum	2d\)	.	.	.
!	!	!	!	!	!	!	!	!	!	!	!LO:TX:t=P:problem:kreska pseudotaktowa	!
.	.	.	.	.	.	.	.	.	.	.	4b-\)	.
!	!	!	!	!	!	!	!	!	!LO:TX:t=P:problem:kreska pseudotaktowa	!	!	!
(2F\	Cum	(<2F/	1FF	Cum	2r	.	2F/	S(an)-	1c	-te	2a\	.
!	!	!	!	!	!	!	!	!	!	!	!LO:TX:t=P:problem:kreska pseudotaktowa	!
!	!	!	!	!	!	!	!	!	!	!	!LO:TX:t=P:problem:kropka przez kreskę (w kolejnym systemie)	!
!	!	!	!	!	!	!	!LO:TX:t=P:problem:kreska pseudotaktowa	!	!	!	!LO:SIC:v:t=custos:g	!
4E\	.	4E/	.	.	2c\	Cum	2F/	-cto	.	.	2.g/	.
!LO:TX:t=P:problem:kreska pseudotaktowa	!	!LO:TX:t=P:problem:kreska pseudotaktowa	!	!	!	!	!	!	!	!	!	!
4D\)	.	4D/)	.	.	.	.	.	.	.	.	.	.
*	*	*v	*v	*	*	*	*	*	*	*	*	*
!	!	!	!	!	!	!	!	!	!	!	!LO:LB:g=original
=49	=49-	=49	=49-	=49-	=49-	=49-	=49-	=49-	=49-	=49-	=49-
1.C	San-	1.C	S(an)-	2c\	San-	1.G	Spi-	0r	.	.	.
.	.	.	.	.	.	.	.	.	.	4f/	.
!	!	!	!	!LO:TX:t=P:problem:kreska pseudotaktowa	!	!	!	!	!	!	!
.	.	.	.	2c\	-cto	.	.	.	.	4e/	.
!	!	!	!	!	!	!	!	!	!	!LO:TX:t=P:problem:kreska pseudotaktowa	!
.	.	.	.	.	.	.	.	.	.	4d/	.
.	.	.	.	2.c\	Spi-	.	.	.	.	2e,/	-cto
!LO:TX:t=P:problem:kreska pseudotaktowa	!	!LO:TX:t=P:problem:kreska pseudotaktowa	!	!	!	!LO:TX:t=P:problem:kreska pseudotaktowa	!	!	!	!	!
2C,/	-cto	2C/	-cto	.	.	2G/	-ri-	.	.	1f/	Spi-
!	!	!	!	!LO:TX:t=P:problem:kreska pseudotaktowa	!	!	!	!	!	!	!
.	.	.	.	4c\	-ri-	.	.	.	.	.	.
=50	=50-	=50	=50-	=50	=50-	=50	=50-	=50-	=50-	=50-	=50-
!	!	!	!	!	!	!	!	!LO:TX:t=P:problem:kreska pseudotaktowa	!	!	!
4C/	Spi-	4C/	Spi-	2c,\	-tu	2G,/	-tu	1r	.	.	.
4C/	-ri-	4C/	-ri-	.	.	.	.	.	.	.	.
!	!	!	!	!LO:TX:t=P:problem:kreska pseudotaktowa	!	!LO:TX:t=P:problem:kreska pseudotaktowa	!	!	!	!LO:TX:t=P:problem:kreska pseudotaktowa	!
4C,/	-tu	4C,/	-tum	2c\	in	2G/	in	.	.	2e/	-ri-
!LO:TX:t=P:problem:kreska pseudotaktowa	!	!	!LO:LB:g=original	!	!	!	!	!	!	!	!
4C/	in	4C/	in	.	.	.	.	.	.	.	.
4F\	glo-	4F\	glo-	2A/	glo-	2F/	glo-	2r	.	2f,/	-tu
4F\	-ri-	4F\	-ri-	.	.	.	.	.	.	.	.
!LO:TX:t=P:problem:kreska pseudotaktowa	!	!LO:TX:t=P:problem:kreska pseudotaktowa	!	!	!	!	!	!LO:TX:t=P:problem:kreska pseudotaktowa	!	!LO:TX:t=P:problem:kreska pseudotaktowa	!
2F,\	-a	2FF/ 2F	-a	4A/	-ri-	4F/	-ri-	2c/	in	2f/	in
!	!	!	!	!LO:TX:t=P:problem:kreska pseudotaktowa	!	!LO:TX:t=P:problem:kreska pseudotaktowa	!	!	!	!	!
.	.	.	.	4G/	-a	4F/	-a	.	.	.	.
=51	=51-	=51	=51-	=51	=51-	=51	=51-	=51	=51-	=51	=51-
2r	.	2r	.	4F/	De-	1.F	De-	2c/	glo-	2.f/	glo-
.	.	.	.	(4G/	.	.	.	.	.	.	.
*	*	*	*ij	*	*	*	*	*	*	*	*
!LO:TX:t=P:problem:kreska pseudotaktowa	!	!	!	!	!	!	!	!	!	!	!
2F\	in	2F\	in	(4A/)	-i	.	.	4c/	-ri-	.	.
!	!	!	!	!	!	!	!	!LO:TX:t=P:problem:kreska pseudotaktowa	!	!	!
.	.	.	.	4B-/)	.	.	.	4B-/	-a	4f/	-ri-
!	!	!	!	!	!	!	!	!	!	!LO:TX:t=P:problem:kreska pseudotaktowa	!
2F\	glo-	2F\	glo-	1c	Pa-	.	.	(2.A/	De-	1f	-a
!	!	!	!	!	!	!LO:TX:t=P:problem:kreska pseudotaktowa	!	!	!	!	!
4F\	-ri-	4F\	-ri-	.	.	2F/	-i	.	.	.	.
!LO:TX:t=P:problem:kreska pseudotaktowa	!	!	!	!	!	!	!	!	!	!	!
4E\	-a	4E,\	-a	.	.	.	.	4G/)	.	.	.
*	*	*	*Xij	*	*	*	*	*	*	*	*
=52	=52-	=52-	=52-	=52-	=52-	=52	=52-	=52-	=52-	=52	=52-
2.D/	De-	2.D/	De-	1.d	-tris	1.F	Pa-	2F,/	-i	2f/	De-
!	!	!	!	!	!	!	!	!	!	!LO:TX:t=P:problem:kreska pseudotaktowa	!
.	.	.	.	.	.	.	.	1f	Pa-	2f/	-i
!LO:TX:t=P:problem:kreska pseudotaktowa	!	!	!	!	!	!	!	!	!	!	!
4C,/	-i	4C/	-i	.	.	.	.	.	.	.	.
!LO:LB:g=original	!	!	!	!	!	!	!	!	!	!	!
2BB-/	Pa-	2BB-/	P(at)-	.	.	.	.	.	.	2f/	Pa-
!LO:TX:t=P:problem:kreska pseudotaktowa	!	!	!	!LO:TX:t=P:problem:kreska pseudotaktowa	!	!LO:TX:t=P:problem:kreska pseudotaktowa	!	!	!	!LO:TX:t=P:problem:kreska pseudotaktowa	!
2AA/	-tris	2AA,/	-ris	2c\	.	2F/	-tri	2f\	-tris	2f/	-tris
=53	=53-	=53-	=53-	=53	=53-	=53	=53-	=53-	=53-	=53	=53-
1BB-	a-	1BB-	a-	1.B-	a-	1F	a-	1d	a-	1f	a-
!LO:N:vis=0	!	!LO:N:vis=0	!	!	!	!LO:N:vis=0	!	!	!	!LO:N:vis=0	!
0.F;	-men	0.FF; 0.F;	-men	.	.	0.F;	-men	0.f;<	-men	0.f;	-men
.	.	.	.	4c\	.	.	.	.	.	.	.
.	.	.	.	4d\	.	.	.	.	.	.	.
=54-	=54-	=54-	=54-	=54-	=54-	=54-	=54-	=54-	=54-	=54-	=54-
.	.	.	.	0c;	-men	.	.	.	.	.	.
==	==	==	==	==	==	==	==	==	==	==	==
*-	*-	*-	*-	*-	*-	*-	*-	*-	*-	*-	*-
!!!system-decoration: [(s1,s2,s3,s4,s5,s6)]
!!!RDF**kern: > = above
!!!RDF**kern: < = below
!!!ENC: Kamil Watkowski
!!!END: 2021-08-07
